X:3113
T:Clog, The
R:polka
S:Mary Bergin
Z:id:hn-polka-29
M:2/4
L:1/8
K:D
AD FA|G/A/G/F/ EF/G/|AD FA|de/d/ cB|
AD FA|G/A/G/F/ E2|c/B/A ce|1 de/d/ cB:|2 d2 d>e||
|:fa gf|ec A>e|fd af|e2 ed/e/|fa gf|ec A>B|c/B/A ce|1 d2 d>e:|2 de/d/ cB||
"Variations:"
AD FA|GF EF/G/|AD FA|d2 cB|AD FA|GF E2|c/B/A ce|1 d2 cB:|2 d2 d>e||
|:fd gf|ec A2|f/e/d gf|e2 ed/e/|fd gf|ec A2|c/B/A ce|1 d2 d>e:|2 de/d/ cB||


